packages/bezier-icons/icons/person-sleep.svg

<svg width="24" height="24" viewBox="0 0 24 24" fill="none" xmlns="http://www.w3.org/2000/svg">
<path fill-rule="evenodd" clip-rule="evenodd" d="M13.5 7.50012C13.5 9.43312 11.933 11.0001 10 11.0001C8.067 11.0001 6.5 9.43312 6.5 7.50012C6.5 5.56712 8.067 4.00012 10 4.00012C11.933 4.00012 13.5 5.56712 13.5 7.50012ZM1.50087 19.4755C1.77163 15.3017 5.24965 12 9.50055 12C12.6015 12 15.2905 13.7569 16.6235 16.3277L15.4636 17.7196C14.9667 18.3158 14.8597 19.1455 15.1888 19.8483C15.2132 19.9003 15.2396 19.9509 15.2679 20H2.00916C1.72363 20 1.48364 19.7605 1.50087 19.4755ZM17 12C16.4477 12 16 12.4477 16 13C16 13.5523 16.4477 14 17 14H19.865L16.2318 18.3598C15.9834 18.6579 15.9298 19.0728 16.0944 19.4242C16.259 19.7755 16.612 20 17 20H22C22.5523 20 23 19.5523 23 19C23 18.4477 22.5523 18 22 18H19.135L22.7682 13.6402C23.0166 13.3421 23.0702 12.9272 22.9056 12.5758C22.741 12.2245 22.388 12 22 12H17Z" fill="#313234"/>
</svg>

<svg xmlns="http://www.w3.org/2000/svg" width="24" height="24" fill="none" viewBox="0 0 24 24"><path fill="#313234" fill-rule="evenodd" d="M13.5 7.5a3.5 3.5 0 1 1-7 0 3.5 3.5 0 0 1 7 0m-12 11.976C1.773 15.302 5.25 12 9.5 12c3.101 0 5.79 1.757 7.124 4.328l-1.16 1.392a2 2 0 0 0-.196 2.28H2.009a.506.506 0 0 1-.508-.524M17 12a1 1 0 1 0 0 2h2.865l-3.633 4.36A1 1 0 0 0 17 20h5a1 1 0 1 0 0-2h-2.865l3.633-4.36A1 1 0 0 0 22 12z" clip-rule="evenodd"/></svg>
